actions/22/mail-reply-custom-all.svg

<svg xmlns="http://www.w3.org/2000/svg" viewBox="0 0 22 22">
  <defs id="defs3051">
<style type="text/css" id="current-color-scheme">.ColorScheme-Text {color:#fcfcfc;}</style>
  </defs>
 <path 
    style="fill:currentColor;fill-opacity:1;stroke:none" 
    d="m 1,6 v 6 H 2 V 8 h 18 v 4 4 c 0,0 0,2 -2,2 -2,0 -10,0 -10,0 v 1 h 6 c 0,0 1,0 4,0 3,0 3,-3 3,-3 V 12 6 C 21,6 21,3 18,3 15,3 7,3 4,3 1,3 1,6 1,6 Z M 4,4 c 2,0 12,0 14,0 2,0 2,2 2,2 V 7 H 2 V 6 C 2,6 2,4 4,4 Z m 0,9 -3,3 3,3 v -2 -2 z m 1,2 v 2 h 1 v -2 z m 2,0 v 2 h 1 v -2 z"
    class="ColorScheme-Text"
    />  
</svg>

<svg xmlns="http://www.w3.org/2000/svg" viewBox="0 0 22 22">
  <defs id="defs3051">
    <style type="text/css" id="current-color-scheme">
      .ColorScheme-Text {
        color:#eff0f1;
      }
      </style>
  </defs>
 <path 
    style="fill:currentColor;fill-opacity:1;stroke:none" 
    d="M 1 3 L 1 12 L 2 12 L 2 8 L 20 8 L 20 12 L 20 16 L 20 17.414062 L 20 18 L 8 18 L 8 19 L 14 19 L 20 19 L 21 19 L 21 18.414062 L 21 18 L 21 12 L 21 4 L 21 3 L 20 3 L 19.537109 3 L 2.4628906 3 L 2 3 L 1.0488281 3 L 1 3 z M 2 4 L 2.0488281 4 L 3.4628906 4 L 18.537109 4 L 19.951172 4 L 20 4 L 20 4.2226562 L 20 7 L 2 7 L 2 4.2226562 L 2 4 z M 4 13 L 1 16 L 4 19 L 4 17 L 4 15 L 4 13 z M 5 15 L 5 17 L 6 17 L 6 15 L 5 15 z M 7 15 L 7 17 L 8 17 L 8 15 L 7 15 z "
    class="ColorScheme-Text"
    />  
</svg>
